!!!COM: Scriabin, Alexander
!!!OTL@@FR: Mazurka en mi mineur
!!!OTL@@EN: Mazurka in E Minor
!!!OPR@@FR: 9 Mazurkas
!!!OPR@@EN: 9 Mazurkas
!!!OPS: 25
!!!ONM: 3
!!!ODT: 1899
!!!AGN: Mazurka
**kern	**kern	**dynam
*staff2	*staff1	*staff1/2
*Ipiano	*Ipiano	*
*clefG2	*clefG2	*
*k[f#]	*k[f#]	*
*e:	*e:	*
*M3/4	*M3/4	*
=1	=1	=1
*^	*	*
*	*^	*	*
2e	2.g	2.r	8r	.
.	.	.	8b	.
.	.	.	4.cc	.
4d#X	.	.	.	.
.	.	.	8b	.
=2	=2	=2	=2	=2
2dn	2.g	4r	8a#XL	.
.	.	.	8bJ	.
.	.	.	8qb	.
.	.	2b	8.ff#L	.
.	.	.	16eeJk	.
4c#X	.	.	4ee	.
=3	=3	=3	=3	=3
2cn	2.e	4r	8r	.
.	.	.	8gL	.
.	.	4r	8an	.
.	.	.	8a#X	.
4B	.	4g	8b	.
.	.	.	8eeJ	.
*clefF4	*	*	*	*
=4	=4	=4	=4	=4
2B	2.e	[2.g	2dd	.
4A#X	.	.	4cc#X	.
=5	=5	=5	=5	=5
2.An	2d#X	4g]	2ccn	.
.	.	4f#	.	.
.	4c	4fn	[4cc	.
=6	=6	=6	=6	=6
2.F#X	2c	4e	8ccL]	.
.	.	.	8b	.
.	.	4d#X	8g#X	.
.	.	.	8aJ	.
.	4A	4dn	4r	.
=7	=7	=7	=7	=7
2.D#X	2A	4c#X	4r	.
.	.	4cn	4.f#	.
.	4F#	4B	.	.
.	.	.	8f#	.
=8	=8	=8	=8	=8
2C	2F#	4A#X	8f#L	.
.	.	.	8e	.
.	.	4An	8dn	.
.	.	.	8d#X	.
4BB	4A	4d#X	8g	.
.	.	.	8f#J	.
=9	=9	=9	=9	=9
4E	4G	4e	8e	.
.	.	.	8b	.
*clefG2	*	*	*	*
4e	2g	2r	4.cc	.
4d#X	.	.	.	.
.	.	.	8b	.
=10	=10	=10	=10	=10
2dn	2.g	4r	8a#XL	.
.	.	.	8bJ	.
.	.	.	8qb	.
.	.	2b	8.ff#L	.
.	.	.	16eeJk	.
4c#X	.	.	4ee	.
=11	=11	=11	=11	=11
4cn	4g	4b	8r	.
.	.	.	8eeL	.
4c#X	[2b	[2ee	8ff#	.
.	.	.	8gg	.
4g	.	.	8bb	.
.	.	.	8eeeJ	.
=12	=12	=12	=12	=12
2.f#	2b]	2ee]	4ddd	.
.	.	.	4ccc#X	.
.	4a#X	4ee	4ff#	.
=13	=13	=13	=13	=13
2.e	2a#X	4dd	2gg	.
.	.	4cc#X	.	.
.	4g	4ccn	[4gg	.
=14	=14	=14	=14	=14
2.c#X	2g	4b	8ggL]	.
.	.	.	8ff#	.
.	.	4a#X	8dd#X	.
.	.	.	8eeJ	.
.	4e	4an	4r	.
=15	=15	=15	=15	=15
2.A#X	2e	4g#X	4r	.
.	.	4gn	4.cc#X	.
.	4c#X	4f#	.	.
.	.	.	8cc#	.
*clefF4	*	*	*	*
=16	=16	=16	=16	=16
2G	2c#X	4e#X	8cc#XL	.
.	.	.	8b	.
.	.	4en	8an	.
.	.	.	8a#X	.
4F#	4e	4a#X	8dd	.
.	.	.	8cc#J	.
*	*v	*v	*	*
*v	*v	*	*
=17	=17	=17
*	*^	*
2.d 2.f#	2.b	4r	.
.	.	2ff#	.
=18	=18	=18	=18
2.d 2.f#	2.b	4r	.
.	.	8r	.
.	.	4ff#	.
.	.	8ff#	.
=19	=19	=19	=19
*^	*	*	*
*	*^	*	*	*
[2.G	[2.d	4f#	4a#X 4dd	4ff#	.
.	.	.	[16qa#LL	.	.
.	.	.	[16qdd	.	.
.	.	.	16qaanJJ	.	.
.	.	[2e	2a#_ 2dd]	4.gg	.
.	.	.	.	8dd	.
=20	=20	=20	=20	=20	=20
2G]	2.d]	4e]	2.a#]	2.dd	.
.	.	8eL	.	.	.
.	.	8e#XJ	.	.	.
4F#	.	8.f#L	.	.	.
.	.	16f#Jk	.	.	.
*	*v	*v	*	*	*
*v	*v	*	*	*
=21	=21	=21	=21
2.d 2.f#	4b	4r	.
.	4an	[2ff#	.
.	4a#X	.	.
=22	=22	=22	=22
2.d 2.f#	4cc#X	4ff#]	.
.	4ccn	8r	.
.	.	4ff#	.
.	4b	.	.
.	.	8ff#	.
=23	=23	=23	=23
*^	*	*	*
*	*^	*	*	*
[2.G	[2.d	4f#	4a#X 4dd	4ff#	.
.	.	.	[16qa#LL	.	.
.	.	.	[16qdd	.	.
.	.	.	16qaanJJ	.	.
.	.	[2e	2a#] 2dd]	4.gg	.
.	.	.	.	8dd	.
=24	=24	=24	=24	=24	=24
2.G]	2.d]	4e]	2.b-X	2.dd	.
.	.	8eL	.	.	.
.	.	8f#	.	.	.
.	.	8a	.	.	.
.	.	8gJ	.	.	.
*	*v	*v	*	*	*
*v	*v	*	*	*
*clefG2	*	*	*
=25	=25	=25	=25
2.d 2.f#	2.a 2.dd	4r	.
.	.	2aa	.
=26	=26	=26	=26
2.d 2.fn 2.a	2.dd	4r	.
.	.	8r	.
.	.	4aa	.
.	.	8aa	.
=27	=27	=27	=27
*^	*	*	*
*	*^	*	*	*
[2.B-X	[2.fn	4a	4dd-X	4ffn 4aa	.
.	.	.	[16qdd-LL	.	.
.	.	.	[16qff	.	.
.	.	.	16qcccJJ	.	.
.	.	[2g	2dd-_ 2ff]	4.bb-X	.
.	.	.	.	8ff	.
=28	=28	=28	=28	=28	=28
2.B-]	2.f]	4g]	2.dd-]	2.ffn	.
.	.	8gL	.	.	.
.	.	8a	.	.	.
.	.	8cc	.	.	.
.	.	8b-XJ	.	.	.
*	*v	*v	*	*	*
=29	=29	=29	=29	=29
*	*	*	*^	*
2.fn	2.a	4cc	2.ffn	4r	.
.	.	4r	.	2ccc	.
.	.	4r	.	.	.
*	*	*	*v	*v	*
*	*v	*v	*	*
*v	*v	*	*
=30	=30	=30
2.fn 2.b 2.aa	4r	.
.	2ddd	.
=31	=31	=31
2.e 2.b 2.aa	4r	.
.	4eee	.
.	8ddd#XL	.
.	8eeeJ	.
=32	=32	=32
*^	*	*
2.e 2.dd	2aa	8fffnL	.
.	.	8eee	.
.	.	8bb-X	.
.	.	8bbn	.
.	4gg#X	8ccc	.
.	.	8eeJ	.
=33	=33	=33	=33
*	*^	*	*
2a	2.cc	4aa	8r	.
.	.	.	8ee	.
.	.	4r	4.ffn	.
4g#X	.	4r	.	.
.	.	.	8ee	.
=34	=34	=34	=34	=34
2gn	2.cc	4r	8dd#XL	.
.	.	.	8eeJ	.
.	.	.	8qee	.
.	.	2ee	8.bbL	.
.	.	.	16aaJk	.
4f#X	.	.	4aa	.
=35	=35	=35	=35	=35
2fn	2.a	4r	8r	.
.	.	.	8ccL	.
.	.	4r	8ddn	.
.	.	.	8dd#X	.
4e	.	4cc	8ee	.
.	.	.	8aaJ	.
=36	=36	=36	=36	=36
2e	2.a	[2.cc	2gg	.
4d#X	.	.	4ff#X	.
=37	=37	=37	=37	=37
2.dn	2g#X	4cc]	2ffn	.
.	.	4b	.	.
.	4fn	4b-X	[4ff	.
=38	=38	=38	=38	=38
2.Bn	2fn	4a	8ffL]	.
.	.	.	8ee	.
.	.	4g#X	8cc#X	.
.	.	.	8ddJ	.
.	4d	4gn	4r	.
=39	=39	=39	=39	=39
2.G#X	2d	4f#X	4r	.
.	.	4fn	4.b	.
.	4B	4e	.	.
.	.	.	8b	.
=40	=40	=40	=40	=40
2Fn	2B	4d#X	8bL	.
.	.	.	8a	.
.	.	4dn	8gn	.
.	.	.	8g#X	.
4E	4d	4g#X	8cc	.
.	.	.	8bJ	.
=41	=41	=41	=41	=41
2A	2.c	4a	8a	.
.	.	.	8e	.
.	.	4r	4.fn	.
4G#X	.	4r	.	.
.	.	.	8e	.
*clefF4	*	*	*	*
=42	=42	=42	=42	=42
2Gn	2.c	4r	8d#XL	.
.	.	.	8eJ	.
.	.	.	8qe	.
.	.	2e	8.bL	.
.	.	.	16aJk	.
4F#X	.	.	4a	.
=43	=43	=43	=43	=43
4Fn	4c	4e	8r	.
.	.	.	8aL	.
4F#X	[2e	[2a	8b	.
.	.	.	8cc	.
4c	.	.	8ee	.
.	.	.	8aaJ	.
=44	=44	=44	=44	=44
2.B	2e]	2a]	4gg	.
.	.	.	4ff#	.
.	4d#X	4a	4b	.
=45	=45	=45	=45	=45
2.A	2d#X	4g	2cc	.
.	.	4f#	.	.
.	4c	4fn	[4cc	.
=46	=46	=46	=46	=46
2.F#X	2c	4e	8ccL]	.
.	.	.	8b	.
.	.	4d#X	8g#X	.
.	.	.	8aJ	.
.	4A	4dn	4r	.
=47	=47	=47	=47	=47
2.D#X	2A	4c#X	4r	.
.	.	4cn	4.f#	.
.	4F#	4B	.	.
.	.	.	8f#	.
=48	=48	=48	=48	=48
2C	2F#	4A#X	8f#L	.
.	.	.	8e	.
.	.	4An	8dn	.
.	.	.	8d#X	.
4BB	4A	4d#X	8g	.
.	.	.	8f#J	.
*	*v	*v	*	*
*v	*v	*	*
=49	=49	=49
*	*^	*
2.G 2.B	2.e	4r	.
.	.	2b	.
=50	=50	=50	=50
2.G 2.B	2.e	4r	.
.	.	8r	.
.	.	4b	.
.	.	8b	.
=51	=51	=51	=51
*^	*	*	*
*	*^	*	*	*
[2.C	[2.G	4B	4d#X	4g 4b	.
.	.	.	[16qd#LL	.	.
.	.	.	[16qg	.	.
.	.	.	16qddnJJ	.	.
.	.	[2A	2d#_ 2g]	4.cc	.
.	.	.	.	8g	.
=52	=52	=52	=52	=52	=52
2C]	2.G]	4A]	2.d#]	2.g	.
.	.	8AL	.	.	.
.	.	8A#XJ	.	.	.
4BB	.	8.BL	.	.	.
.	.	16BJk	.	.	.
*	*v	*v	*	*	*
*v	*v	*	*	*
=53	=53	=53	=53
2.G 2.B	4e	4r	.
.	4dn	[2b	.
.	4d#X	.	.
=54	=54	=54	=54
2.G 2.B	4f#	4b]	.
.	4fn	8r	.
.	.	4b	.
.	4e	.	.
.	.	8b	.
=55	=55	=55	=55
*^	*	*	*
*	*^	*	*	*
[2.C	[2.G	4B	4d#X	4g 4b	.
.	.	.	[16qd#LL	.	.
.	.	.	[16qg	.	.
.	.	.	16qddnJJ	.	.
.	.	[2A	2d#_ 2g]	4.cc	.
.	.	.	.	8g	.
=56	=56	=56	=56	=56	=56
2.C]	2.G]	2.A]	2.d#]	2.g	.
*	*v	*v	*	*	*
*v	*v	*	*	*
=57	=57	=57	=57
4r	4r	4r	.
4r	8AL	4r	.
.	8A#XJ	.	.
4BB	8.BL	4G 4d#X 4g	.
.	16BJk	.	.
*	*v	*v	*
=58	=58	=58
2.EEE 2.EE 2.BB	2.G 2.B 2.e 2.g	.
==	==	==
*-	*-	*-
!!!system-decoration: {(*)}
!!!filter: flipper -a
!!!RDF**dynam: > = dim.
!!!ENC: Bryan Jacob Bell
!!!END: November 2021 to April 2022
!!!PED: Günter Philipp
!!!PTL: Ausgewählte Klavierwerke (Edition Peters)
